Flat Remix Light/panel/indicator-keyboard-Ps.svg

<svg xmlns="http://www.w3.org/2000/svg" width="22" height="22" version="1.1">
 <defs>
  <style id="current-color-scheme" type="text/css">
   .ColorScheme-Text { color:#31363b; } .ColorScheme-Highlight { color:#3daee9; }
  </style>
 </defs>
 <rect style="opacity:0" width="22" height="22" x="0" y="0"/>
 <path style="fill:none;stroke:currentColor;stroke-width:1.99999976;stroke-linecap:round;stroke-linejoin:bevel" class="ColorScheme-Text" d="m 5.0069673,10.999988 1.9999823,-4e-6 c 0.4242292,-10e-7 0.7359684,4.54e-4 1.00001,4.54e-4 0.9999987,0 0.9999987,0 0.9999987,-1 0,-0.3133376 1.89e-5,-0.3843734 1.13e-5,-1.0004478 -3.7e-6,-0.4161034 -1.13e-5,-0.7327469 -1.13e-5,-0.9995518 0,-1 0,-1 -0.9999987,-1 -0.2328945,0 -0.575142,0.020239 -0.9214299,0.024786 C 6.0067468,7.0393934 5.0069673,6.9999014 5.0069673,6.9999014 M 5.0070656,15 l 0,-8.0000003"/>
 <path style="fill:none;stroke:currentColor;stroke-width:1.99999976;stroke-linecap:round;stroke-linejoin:round" class="ColorScheme-Text" d="m 13.000054,14.000066 c 0,1 0,1 0.999998,1 0.359093,0 0.425299,2.18e-4 1.00001,3.2e-5 0.454553,-1.11e-4 -1.1e-5,-3.2e-5 0.999992,-3.2e-5 0,0 0.999991,0 0.999998,-1 l 8e-6,-1.00045 c 0,-4.2143841 -3.999999,0.211163 -3.988018,-3.9907041 -0.0025,-0.4205455 -0.01209,-0.7453845 -0.01209,-1.0088458 0,-0.9999999 0.999999,-0.9999999 0.999999,-0.9999999 0.251868,0 0.631707,-4.499e-4 1.00001,-4.492e-4 0.347679,0 0.741252,4.492e-4 0.999991,4.492e-4 0.999999,0 0.999999,0 0.999999,0.9999999"/>
</svg>

<svg xmlns="http://www.w3.org/2000/svg" width="12pt" height="12pt" version="1.1" viewBox="0 0 12 12">
 <g>
  <path style="fill:none;stroke-width:2;stroke-linecap:round;stroke-linejoin:bevel;stroke:rgb(19.215686%,21.176471%,23.137255%)" d="M 5.007812 11 L 7.007812 11 C 7.429688 11 7.742188 11 8.007812 11 C 9.007812 11 9.007812 11 9.007812 10 C 9.007812 9.6875 9.007812 9.617188 9.007812 9 C 9.007812 8.585938 9.007812 8.265625 9.007812 8 C 9.007812 7 9.007812 7 8.007812 7 C 7.773438 7 7.429688 7.023438 7.085938 7.023438 C 6.007812 7.039062 5.007812 7 5.007812 7 M 5.007812 15 L 5.007812 7" transform="matrix(0.5,0,0,0.5,0.5,0.5)"/>
  <path style="fill:none;stroke-width:2;stroke-linecap:round;stroke-linejoin:round;stroke:rgb(19.215686%,21.176471%,23.137255%)" d="M 13 14 C 13 15 13 15 14 15 C 14.359375 15 14.421875 15 15 15 C 15.453125 15 15 15 16 15 C 16 15 17 15 17 14 L 17 13 C 17 8.789062 13 13.210938 13.015625 9.007812 C 13.007812 8.585938 13 8.265625 13 8 C 13 7 14 7 14 7 C 14.25 7 14.632812 7 15 7 C 15.34375 7 15.742188 7 16 7 C 17 7 17 7 17 8" transform="matrix(0.5,0,0,0.5,0.5,0.5)"/>
 </g>
</svg>
